Obsidian-SemiLight/actions/24s/office-chart-line.svg

<svg viewBox="0 0 24 24" xmlns="http://www.w3.org/2000/svg"><path d="m5 4v6 1 5 1 1h-1v1h1v1h1v-1h13.292969.707031v-.707031-.292969h-.292969l-.748047-.748047-.828125-.828125-2-2-.003906.003906-.005859-.003906-2.123047 2.123047-1.294922-1.294922-.828125-.828125-2-2h-.0019531-1.8730469-1-1v-.423828-1h1 1 1.8730469.0019531l2-2 .828125-.828125 1.294922-1.2949219 2.123047 2.1230469.005859-.0039062.003906.0039062 2-2 .828125-.828125 1.041016-1.0410156-.707031-.7070313-1.041016 1.0410157-.828125.828125-1.296875 1.296875-2.126953-2.125-.001953.0019531-.001953-.0019531-1.527344 1.5273437h-6.46875v-.9921875-2zm1 3h6.460938l-.464844.4648438-.828125.828125-1.7070315 1.7070312h-1.4609375-1-1zm0 6.423828h1 1 1.4609375l1.7070315 1.707031.828125.828125.464844.464844h-6.460938v-.423828zm10.126953 2.410156 1.296875 1.296875.828125.828125.041016.041016h-12.292969v-1-.568359h6.46875l1.527344 1.527343.001953-.001953.001953.001953z" fill="#4d4d4d"/></svg>

<svg xmlns="http://www.w3.org/2000/svg" viewBox="0 0 24 24">
  <defs id="defs3051">
    <style type="text/css" id="current-color-scheme">
      .ColorScheme-Text {
        color:#4d4d4d;
      }
      </style>
  </defs>
 <path style="fill:currentColor;fill-opacity:1;stroke:none" 
     d="M 5 4 L 5 10 L 5 11 L 5 16 L 5 17 L 5 18 L 4 18 L 4 19 L 5 19 L 5 20 L 6 20 L 6 19 L 19.292969 19 L 20 19 L 20 18.292969 L 20 18 L 19.707031 18 L 18.958984 17.251953 L 18.130859 16.423828 L 16.130859 14.423828 L 16.126953 14.427734 L 16.121094 14.423828 L 13.998047 16.546875 L 12.703125 15.251953 L 11.875 14.423828 L 9.875 12.423828 L 9.8730469 12.423828 L 8 12.423828 L 7 12.423828 L 6 12.423828 L 6 12 L 6 11 L 7 11 L 8 11 L 9.8730469 11 L 9.875 11 L 11.875 9 L 12.703125 8.171875 L 13.998047 6.8769531 L 16.121094 9 L 16.126953 8.9960938 L 16.130859 9 L 18.130859 7 L 18.958984 6.171875 L 20 5.1308594 L 19.292969 4.4238281 L 18.251953 5.4648438 L 17.423828 6.2929688 L 16.126953 7.5898438 L 14 5.4648438 L 13.998047 5.4667969 L 13.996094 5.4648438 L 12.46875 6.9921875 L 6 6.9921875 L 6 6 L 6 4 L 5 4 z M 6 7 L 12.460938 7 L 11.996094 7.4648438 L 11.167969 8.2929688 L 9.4609375 10 L 8 10 L 7 10 L 6 10 L 6 7 z M 6 13.423828 L 7 13.423828 L 8 13.423828 L 9.4609375 13.423828 L 11.167969 15.130859 L 11.996094 15.958984 L 12.460938 16.423828 L 6 16.423828 L 6 16 L 6 13.423828 z M 16.126953 15.833984 L 17.423828 17.130859 L 18.251953 17.958984 L 18.292969 18 L 6 18 L 6 17 L 6 16.431641 L 12.46875 16.431641 L 13.996094 17.958984 L 13.998047 17.957031 L 14 17.958984 L 16.126953 15.833984 z "
     class="ColorScheme-Text"
     />
</svg>
